X:2
T:B inversion
M:3/4
L:1/4
Q:1/4=70
K:C
%%MIDI program 1 71 % Clarinet  %%transpose=-2
%%MIDI program 2 71 % Clarinet  %%transpose=-2
V:Top
[Q:1/4=120]
[K:Ebmin]"^Major Octatonic in D"A/B/c/d/c|B>AB     |c2B/c/|d>cB  |c2 z|
V:Bottom
[K:Amin]"^Inversion of B"      z3       |D/E/F/G/E|D>EF  |G2E/F/|D2 z|





